src/lib/packages/icons/src/assets/filled/message-check-alt.svg

<svg width="24" height="24" viewBox="0 0 24 24" fill="none" xmlns="http://www.w3.org/2000/svg">
<path d="M18 3H6C4 3 3 4 3 6V21L6 18H18C20 18 21 17 21 15V6C21 4 20 3 18 3ZM15.553 9.03003L11.553 13.03C11.407 13.176 11.2149 13.25 11.0229 13.25C10.8309 13.25 10.6389 13.177 10.4929 13.03L8.49292 11.03C8.19992 10.737 8.19992 10.262 8.49292 9.96899C8.78592 9.67599 9.26095 9.67599 9.55396 9.96899L11.0239 11.439L14.4939 7.96899C14.7869 7.67599 15.2619 7.67599 15.5549 7.96899C15.8479 8.26199 15.846 8.73703 15.553 9.03003Z" fill="currentColor"/>
</svg>

<svg xmlns="http://www.w3.org/2000/svg" width="24" height="24" fill="none"><path fill="currentColor" d="M18 3H6C4 3 3 4 3 6v15l3-3h12c2 0 3-1 3-3V6c0-2-1-3-3-3Zm-2.447 6.03-4 4a.748.748 0 0 1-1.06 0l-2-2a.75.75 0 1 1 1.061-1.061l1.47 1.47 3.47-3.47a.75.75 0 1 1 1.059 1.061Z"/></svg>
